X: 1
T: Caledon Line
M: 6/8
L: 1/8
R: jig
K: Gmaj
E|:DGG GFD|DCA, DCA,|DGG GFD|1DCA, G,2 E:|2CA,D G,2c||
BGG GAG|FDD DGA|BGG GAB|cAF GGA|
BAG AGF|GAG FDC|B,G,G, A,B,C|1A,G,F, G,2 c:|2A,G,F, G,3||
